X:1
P: Far from Home
C: from R. Miller/New England Fiddlers Repertoire
C: Arr. T. Traub 8-10-03
R: reel
M: 4/4
K: G
L: 1/8
|: BA|"G"GEDE G3 A|"G"B2 BA Bc d2|"G"GEDE "Em"G3 B|"Am"AGAB "D"AG E2|"G"GEDE G3 A|
"G"B2 BA Bc d2|"C"edef gedc|"D"BGAF "G"G3 :||: Bd|"Em"g2 g2 "D"f2 f2|"C"edef ed B2|
"G"gedB "Em"G2 GB|"Am"AGAB "D"AG E2|"G"GEDE G3 A|"G7"B2 BA Bc d2|"C"edef "Am"gedc|"D"BGAF "G"G3 :|
